X: 152
T:Toss the Feathers - Em
R:Reel
M:C|
L:1/8
Q:1/2=112
K:Edor
|EB~B2 dB~B2|EBBA ~F3A|BE~E2 BABd|(3efg fe dBAF|
EB~B2 dB~B2|EBBA FEFA|BE~E2 BABd|(3efg fe dBA2||
(3Bcd ed e3e|fede fe~e2|febe febe|fede fe~e2|
(3Bcd ed e3e|fede fa~a2|bf~f2 af~f2|fgfe dBAF|]
